icons/plexis/48/armagetronad.svg

<svg viewBox="0 0 48 48" xmlns="http://www.w3.org/2000/svg" xmlns:xlink="http://www.w3.org/1999/xlink">
  <linearGradient id="a" gradientTransform="matrix(0 -1 1 0 -.0000015 47.999998)" gradientUnits="userSpaceOnUse" x1="1" x2="47">
    <stop offset="0" stop-color="#182f40"/>
    <stop offset="1" stop-color="#1d394e"/>
  </linearGradient>
  <path d="m47 24c0 22.703-.297 23-23 23-22.703 0-23-.297-23-23 0-22.703.297-23 23-23 22.703 0 23 .297 23 23z" fill="url(#a)"/>
  <g opacity=".1" transform="translate(1 1)">
    <path d="m24 9c-8.285 0-15 6.715-15 15 0 8.281 6.715 14.996 15 14.996 8.281 0 14.996-6.715 14.996-14.996 0-8.285-6.715-15-14.996-15m .027.84c7.816 0 14.15 6.336 14.15 14.15 0 7.816-6.336 14.15-14.15 14.15-7.816 0-14.15-6.336-14.15-14.15 0-7.813 6.336-14.15 14.15-14.15m0 0"/>
    <path d="m24.03 14.395c-5.277 0-9.559 4.277-9.559 9.555 0 5.277 4.281 9.555 9.559 9.555 5.277 0 9.551-4.277 9.551-9.555 0-5.277-4.273-9.555-9.551-9.555m0 1.047c4.719 0 8.547 3.828 8.547 8.551 0 4.719-3.828 8.547-8.547 8.547-4.719 0-8.551-3.828-8.551-8.547 0-4.719 3.828-8.551 8.551-8.551m0 0"/>
  </g>
  <path d="m25 10a15 15 0 0 0-15 15 15 15 0 0 0  15 15 15 15 0 0 0  15-15 15 15 0 0 0-15-15m0 8a7 7 0 0 1 7 7 7 7 0 0 1-7 7 7 7 0 0 1-7-7 7 7 0 0 1  7-7z" opacity=".1"/>
  <path d="m24 9.85c-7.816 0-14.15 6.336-14.15 14.15 0 7.816 6.336 14.15 14.15 14.15 7.816 0 14.15-6.336 14.15-14.15 0-7.813-6.336-14.15-14.15-14.15zm0 7.15a7 7 0 0 1 7 7 7 7 0 0 1-7 7 7 7 0 0 1-7-7 7 7 0 0 1  7-7z" fill="#2a5b7c"/>
  <path d="m24 9a15 15 0 0 0-15 15 15 15 0 0 0  15 15 15 15 0 0 0  15-15 15 15 0 0 0-15-15zm0 1a14 14 0 0 1 14 14 14 14 0 0 1-14 14 14 14 0 0 1-14-14 14 14 0 0 1  14-14zm0 4a10 10 0 0 0-10 10 10 10 0 0 0  10 10 10 10 0 0 0  10-10 10 10 0 0 0-10-10zm0 1a9 9 0 0 1 9 9 9 9 0 0 1-9 9 9 9 0 0 1-9-9 9 9 0 0 1  9-9z" fill="#53aaff"/>
</svg>

<svg xmlns="http://www.w3.org/2000/svg" viewBox="0 0 48 48">
 <defs>
  <linearGradient id="linearGradient3764" x1="1" x2="47" gradientUnits="userSpaceOnUse" gradientTransform="matrix(0,-1,1,0,-1.5e-6,47.999998)">
   <stop style="stop-color:#182f40;stop-opacity:1"/>
   <stop offset="1" style="stop-color:#1d394e;stop-opacity:1"/>
  </linearGradient>
 </defs>
 <g>
  
  
  
 </g>
 <g>
  <path d="m 47,24 C 47,46.703 46.703,47 24,47 1.297,47 1,46.703 1,24 1,1.297 1.297,1 24,1 46.703,1 47,1.297 47,24 z" style="fill:url(#linearGradient3764);fill-opacity:1"/>
 </g>
 <g>
  <g>
   <g transform="translate(1,1)">
    <g style="opacity:0.1">
     <!-- color: #1d394e -->
     <g>
      <path d="m 24 9 c -8.285 0 -15 6.715 -15 15 c 0 8.281 6.715 14.996 15 14.996 c 8.281 0 14.996 -6.715 14.996 -14.996 c 0 -8.285 -6.715 -15 -14.996 -15 m 0.027 0.84 c 7.816 0 14.15 6.336 14.15 14.15 c 0 7.816 -6.336 14.15 -14.15 14.15 c -7.816 0 -14.15 -6.336 -14.15 -14.15 c 0 -7.813 6.336 -14.15 14.15 -14.15 m 0 0" style="fill:#000;fill-opacity:1;stroke:none;fill-rule:nonzero"/>
      <path d="m 24.03 14.395 c -5.277 0 -9.559 4.277 -9.559 9.555 c 0 5.277 4.281 9.555 9.559 9.555 c 5.277 0 9.551 -4.277 9.551 -9.555 c 0 -5.277 -4.273 -9.555 -9.551 -9.555 m 0 1.047 c 4.719 0 8.547 3.828 8.547 8.551 c 0 4.719 -3.828 8.547 -8.547 8.547 c -4.719 0 -8.551 -3.828 -8.551 -8.547 c 0 -4.719 3.828 -8.551 8.551 -8.551 m 0 0" style="fill:#000;fill-opacity:1;stroke:none;fill-rule:nonzero"/>
     </g>
    </g>
   </g>
  </g>
 </g>
 <g>
  <g>
   <!-- color: #1d394e -->
   <g>
    <path d="M 25 10 A 15 15 0 0 0 10 25 15 15 0 0 0 25 40 15 15 0 0 0 40 25 15 15 0 0 0 25 10 m 0 8 a 7 7 0 0 1 7 7 7 7 0 0 1 -7 7 7 7 0 0 1 -7 -7 7 7 0 0 1 7 -7 z" style="fill:#000;opacity:0.1;fill-opacity:1;stroke:none;fill-rule:nonzero"/>
    <path d="m 24 9.85 c -7.816 0 -14.15 6.336 -14.15 14.15 c 0 7.816 6.336 14.15 14.15 14.15 c 7.816 0 14.15 -6.336 14.15 -14.15 c 0 -7.813 -6.336 -14.15 -14.15 -14.15 z m 0 7.15 a 7 7 0 0 1 7 7 a 7 7 0 0 1 -7 7 a 7 7 0 0 1 -7 -7 a 7 7 0 0 1 7 -7 z" style="fill:#2a5b7c;fill-opacity:1;stroke:none;fill-rule:nonzero"/>
   </g>
  </g>
 </g>
 <g>
  
 </g>
 <path d="M 24 9 A 15 15 0 0 0 9 24 A 15 15 0 0 0 24 39 A 15 15 0 0 0 39 24 A 15 15 0 0 0 24 9 z M 24 10 A 14 14 0 0 1 38 24 A 14 14 0 0 1 24 38 A 14 14 0 0 1 10 24 A 14 14 0 0 1 24 10 z M 24 14 A 10 10 0 0 0 14 24 A 10 10 0 0 0 24 34 A 10 10 0 0 0 34 24 A 10 10 0 0 0 24 14 z M 24 15 A 9 9 0 0 1 33 24 A 9 9 0 0 1 24 33 A 9 9 0 0 1 15 24 A 9 9 0 0 1 24 15 z" style="fill:#53aaff;opacity:1;fill-opacity:1;stroke:none"/>
</svg>
